-- plays a saved .wav file of extenions, in this case a drum beat
-- d1 $ sound "bd"

-- plays the third drum beat
-- d1 $ sound "bd:3"

-- alternate way of expressing ^:
-- d1 $ sound "bd" # n "3"

-- quotes = define a sequence
-- the following gives you a pattern of kick drum then snare:
d1 $ sound "bd sd:3"
